static/assets/images/networks/polygon.svg

<svg xmlns="http://www.w3.org/2000/svg" fill="none" viewBox="0 0 512 512"><path fill="#734FD9" d="M512 256a256 256 0 0 1-74.981 181.019 255.997 255.997 0 0 1-362.038 0A256 256 0 1 1 512 256"/><path fill="#fff" d="M344.289 195.636c-6.522-3.731-14.908-3.731-22.362 0l-52.179 30.784-35.407 19.59-51.246 30.783c-6.523 3.732-14.909 3.732-22.363 0l-40.065-24.253c-6.523-3.732-11.181-11.194-11.181-19.59v-46.642c0-7.463 3.727-14.926 11.181-19.59l40.065-23.321c6.523-3.731 14.909-3.731 22.363 0l40.065 24.254c6.523 3.731 11.181 11.194 11.181 19.59v30.784l35.407-20.523v-31.717c0-7.462-3.727-14.925-11.181-19.589l-74.541-43.844c-6.522-3.731-14.908-3.731-22.362 0L85.26 147.128c-7.454 3.732-11.181 11.195-11.181 18.657v87.688c0 7.462 3.727 14.925 11.18 19.589l75.473 43.844c6.523 3.731 14.909 3.731 22.363 0l51.246-29.851 35.407-20.523 51.247-29.851c6.522-3.731 14.908-3.731 22.362 0l40.066 23.321c6.522 3.732 11.181 11.194 11.181 19.59v46.642c0 7.463-3.727 14.925-11.181 19.59l-39.134 23.321c-6.522 3.731-14.908 3.731-22.362 0l-40.066-23.321c-6.522-3.732-11.182-11.194-11.182-19.59v-29.851l-35.406 20.523v30.783c0 7.463 3.727 14.926 11.181 19.59l75.473 43.844c6.522 3.731 14.908 3.731 22.362 0l75.473-43.844c6.522-3.731 11.181-11.194 11.181-19.59V259.07c0-7.463-3.727-14.926-11.181-19.59z"/></svg>

<svg width="512" height="512" viewBox="0 0 512 512" fill="none" xmlns="http://www.w3.org/2000/svg">
<path d="M512 256C512 323.895 485.029 389.01 437.019 437.019C389.01 485.029 323.895 512 256 512C188.105 512 122.99 485.029 74.9807 437.019C26.9714 389.01 0 323.895 0 256C0 188.105 26.9714 122.99 74.9807 74.9807C122.99 26.9714 188.105 0 256 0C323.895 0 389.01 26.9714 437.019 74.9807C485.029 122.99 512 188.105 512 256Z" fill="#734FD9"/>
<path d="M344.289 195.636C337.767 191.905 329.381 191.905 321.927 195.636L269.748 226.42L234.341 246.01L183.095 276.793C176.572 280.525 168.186 280.525 160.732 276.793L120.667 252.54C114.144 248.808 109.486 241.346 109.486 232.95V186.308C109.486 178.845 113.213 171.382 120.667 166.718L160.732 143.397C167.255 139.666 175.641 139.666 183.095 143.397L223.16 167.651C229.683 171.382 234.341 178.845 234.341 187.241V218.025L269.748 197.502V165.785C269.748 158.323 266.021 150.86 258.567 146.196L184.026 102.352C177.504 98.6207 169.118 98.6207 161.664 102.352L85.2598 147.128C77.8057 150.86 74.0787 158.323 74.0787 165.785V253.473C74.0787 260.935 77.8057 268.398 85.2598 273.062L160.732 316.906C167.255 320.637 175.641 320.637 183.095 316.906L234.341 287.055L269.748 266.532L320.995 236.681C327.517 232.95 335.903 232.95 343.357 236.681L383.423 260.002C389.945 263.734 394.604 271.196 394.604 279.592V326.234C394.604 333.697 390.877 341.159 383.423 345.824L344.289 369.145C337.767 372.876 329.381 372.876 321.927 369.145L281.861 345.824C275.339 342.092 270.679 334.63 270.679 326.234V296.383L235.273 316.906V347.689C235.273 355.152 239 362.615 246.454 367.279L321.927 411.123C328.449 414.854 336.835 414.854 344.289 411.123L419.762 367.279C426.284 363.548 430.943 356.085 430.943 347.689V259.07C430.943 251.607 427.216 244.144 419.762 239.48L344.289 195.636Z" fill="white"/>
</svg>
